src/svgs/this-week.svg

<svg xmlns="http://www.w3.org/2000/svg" viewBox="0 0 24 24" width="512" height="512" aria-labelledby="methis-week-desc methis-week-title"><title id="methis-week-title">This Quarter Icon</title><desc id="methis-week-desc">A picture depicting a square with an arrow pointing up.</desc><path d="M22 4v16a2 2 0 01-2 2h-5v-2h5V4H4v16h5v2H4a2 2 0 01-2-2V4a2 2 0 012-2h16a2 2 0 012 2zm-4 2H6v3h12zM8 15h3v7h2v-7h3l-4-4z"/></svg>

<svg xmlns="http://www.w3.org/2000/svg" viewBox="0 0 24 24"><path d="M22,4V20a2,2,0,0,1-2,2H15V20h5V4H4V20H9v2H4a2,2,0,0,1-2-2V4A2,2,0,0,1,4,2H20A2,2,0,0,1,22,4ZM18,6H6V9H18ZM8,15h3v7h2V15h3l-4-4Z"/></svg>
